src/assets/logo.svg

<?xml version="1.0" encoding="UTF-8" standalone="no"?>
<!-- Created with Inkscape (http://www.inkscape.org/) -->

<svg
   width="78.284279"
   height="15.761761"
   viewBox="0 0 78.284279 15.761761"
   version="1.1"
   id="svg1"
   xmlns="http://www.w3.org/2000/svg"
   xmlns:svg="http://www.w3.org/2000/svg">
  <defs
     id="defs1" />
  <g
     id="layer1"
     transform="translate(-45.64756,-52.911968)">
    <path
       style="font-weight:800;font-size:19.1888px;font-family:Roboto;-inkscape-font-specification:'Roboto Ultra-Bold';fill:#5c20ff;stroke-width:1.59907"
       d="M 70.881556,56.803412 67.358612,67.85009 H 64.098015 L 69.148193,54.208052 H 71.20949 Z M 73.80485,67.85009 70.272537,56.803412 69.907125,54.208052 h 2.089406 l 5.068916,13.642038 z m -0.149912,-5.078286 v 2.361122 h -7.111475 v -2.361122 z m 9.78179,2.258057 q 0,-0.281086 -0.178021,-0.496585 -0.168651,-0.215499 -0.618389,-0.393521 -0.440368,-0.178021 -1.246148,-0.356042 -0.758932,-0.159282 -1.414799,-0.412259 -0.655867,-0.262347 -1.143083,-0.627759 -0.487215,-0.374781 -0.758932,-0.880736 -0.271716,-0.515324 -0.271716,-1.171191 0,-0.637128 0.271716,-1.20867 0.281086,-0.571541 0.80578,-1.011909 0.534063,-0.440368 1.292995,-0.693345 0.768302,-0.252978 1.742733,-0.252978 1.339843,0 2.314275,0.421629 0.974431,0.412259 1.499125,1.161822 0.524693,0.740193 0.524693,1.695885 h -2.923293 q 0,-0.39352 -0.149913,-0.683976 -0.149912,-0.290455 -0.459107,-0.449737 -0.309195,-0.168652 -0.815149,-0.168652 -0.393521,0 -0.693346,0.140543 -0.290455,0.131174 -0.459107,0.365412 -0.159282,0.234238 -0.159282,0.543433 0,0.215499 0.0937,0.39352 0.103064,0.168652 0.309194,0.318564 0.215499,0.140543 0.552803,0.252978 0.346672,0.112434 0.843257,0.215499 1.058757,0.19676 1.930124,0.552802 0.880736,0.356042 1.40543,0.983801 0.534063,0.627759 0.534063,1.658407 0,0.674606 -0.309195,1.236778 -0.299825,0.562172 -0.871366,0.983801 -0.571541,0.421629 -1.367952,0.655867 -0.79641,0.234239 -1.79895,0.234239 -1.433538,0 -2.426708,-0.515325 -0.993171,-0.515324 -1.499126,-1.292995 -0.496585,-0.787041 -0.496585,-1.611559 h 2.745273 q 0.01874,0.505954 0.252977,0.824518 0.243608,0.318564 0.627759,0.468477 0.384151,0.140543 0.861997,0.140543 0.477846,0 0.79641,-0.131173 0.318564,-0.131174 0.487216,-0.356043 0.168651,-0.234238 0.168651,-0.534063 z m 7.533104,-7.317604 V 67.85009 H 88.037168 V 57.712257 Z m -3.110685,-2.623469 q 0,-0.637128 0.449738,-1.040018 0.449737,-0.412259 1.180561,-0.412259 0.730823,0 1.180561,0.412259 0.459107,0.40289 0.459107,1.040018 0,0.627759 -0.459107,1.040018 -0.449738,0.40289 -1.180561,0.40289 -0.730824,0 -1.180561,-0.40289 -0.449738,-0.412259 -0.449738,-1.040018 z M 98.971412,65.582663 V 53.458489 h 2.942028 V 67.85009 h -2.642203 z m -6.315065,-2.679686 v -0.19676 q 0,-1.152452 0.252978,-2.098775 0.262346,-0.955692 0.758932,-1.639668 0.505954,-0.693345 1.246147,-1.068127 0.740193,-0.374781 1.695886,-0.374781 0.880736,0 1.536603,0.39352 0.655867,0.384151 1.114974,1.086866 0.468477,0.693345 0.758933,1.639668 0.29045,0.936953 0.44037,2.033189 v 0.337303 q -0.14055,1.049387 -0.44037,1.958232 -0.290456,0.908844 -0.758933,1.60219 -0.459107,0.683976 -1.124344,1.077496 -0.655867,0.384151 -1.545972,0.384151 -0.955693,0 -1.695886,-0.384151 -0.730823,-0.384151 -1.227408,-1.077496 -0.496586,-0.693346 -0.758932,-1.630299 -0.252978,-0.936953 -0.252978,-2.042558 z m 2.923294,-0.19676 v 0.19676 q 0,0.59965 0.08433,1.114975 0.09369,0.515324 0.299825,0.908844 0.20613,0.39352 0.543433,0.618389 0.337303,0.215499 0.824519,0.215499 0.655867,0 1.077496,-0.299825 0.421629,-0.309194 0.637128,-0.852627 0.215499,-0.543433 0.224869,-1.264887 v -0.983801 q 0,-0.59965 -0.121804,-1.077496 -0.121804,-0.477846 -0.365412,-0.805779 -0.234238,-0.327934 -0.590281,-0.496586 -0.356042,-0.178021 -0.843257,-0.178021 -0.477847,0 -0.81515,0.224869 -0.337303,0.215499 -0.552802,0.60902 -0.20613,0.39352 -0.309195,0.927583 -0.0937,0.524694 -0.0937,1.143083 z m 14.232319,2.698425 v -7.692385 h 2.94203 V 67.85009 h -2.75464 z m 0.30919,-2.070666 0.80578,-0.01874 q 0,1.021279 -0.24361,1.883276 -0.23423,0.861996 -0.71208,1.499125 -0.46848,0.637128 -1.17119,0.99317 -0.69335,0.346673 -1.62093,0.346673 -0.74956,0 -1.37732,-0.20613 -0.61839,-0.215499 -1.06813,-0.665237 -0.44974,-0.459107 -0.69334,-1.171191 -0.24361,-0.721454 -0.24361,-1.723994 v -6.558672 h 2.92329 v 6.577411 q 0,0.39352 0.0937,0.674606 0.10306,0.271717 0.27171,0.449738 0.17803,0.178021 0.431,0.262347 0.26235,0.08432 0.57154,0.08432 0.77768,0 1.21804,-0.318564 0.44974,-0.327933 0.62776,-0.871366 0.18739,-0.552802 0.18739,-1.236778 z m 4.11323,-0.449738 v -0.19676 q 0,-1.114974 0.31856,-2.051927 0.31857,-0.946323 0.93696,-1.639668 0.61838,-0.693346 1.51786,-1.077497 0.89947,-0.39352 2.0613,-0.39352 1.18056,0 2.08003,0.39352 0.90885,0.384151 1.52724,1.077497 0.61839,0.693345 0.93695,1.639668 0.31856,0.936953 0.31856,2.051927 v 0.19676 q 0,1.105605 -0.31856,2.051928 -0.31856,0.936953 -0.93695,1.639668 -0.61839,0.693345 -1.51787,1.077496 -0.89947,0.384151 -2.07066,0.384151 -1.16183,0 -2.07067,-0.384151 -0.90885,-0.384151 -1.52723,-1.077496 -0.61839,-0.702715 -0.93696,-1.639668 -0.31856,-0.946323 -0.31856,-2.051928 z m 2.93266,-0.19676 v 0.19676 q 0,0.59965 0.0937,1.124344 0.10306,0.524694 0.32793,0.918214 0.22487,0.39352 0.59028,0.618389 0.37478,0.215499 0.90885,0.215499 0.53406,0 0.89947,-0.215499 0.36541,-0.224869 0.59028,-0.618389 0.22487,-0.39352 0.31857,-0.918214 0.10306,-0.524694 0.10306,-1.124344 v -0.19676 q 0,-0.59028 -0.10306,-1.105605 -0.0937,-0.524693 -0.31857,-0.927583 -0.22487,-0.40289 -0.59965,-0.627759 -0.36541,-0.224869 -0.90884,-0.224869 -0.5247,0 -0.89011,0.224869 -0.36541,0.224869 -0.59028,0.627759 -0.22487,0.40289 -0.32793,0.927583 -0.0937,0.515325 -0.0937,1.105605 z"
       id="text1"
       aria-label="Asiduo" />
    <rect
       style="fill:none;stroke:#b3b3b3;stroke-width:2.388;stroke-dasharray:none;stroke-opacity:1"
       id="rect2"
       width="13.20166"
       height="13.20166"
       x="46.84156"
       y="54.278072" />
    <text
       xml:space="preserve"
       style="font-style:normal;font-variant:normal;font-weight:bold;font-stretch:condensed;font-size:32.4632px;font-family:'Liberation Sans Narrow';-inkscape-font-specification:'Liberation Sans Narrow Bold Condensed';text-align:start;writing-mode:lr-tb;direction:ltr;text-anchor:start;fill:#5c20ff;fill-opacity:1;stroke-width:2.70526"
       x="48.852718"
       y="75.246269"
       id="text2"><tspan
         id="tspan2"
         x="48.852718"
         y="75.246269"
         style="font-style:normal;font-variant:normal;font-weight:bold;font-stretch:normal;font-family:'Liberation Sans';-inkscape-font-specification:'Liberation Sans Bold';fill:#5c20ff;fill-opacity:1;stroke-width:2.70526">*</tspan></text>
  </g>
</svg>

<?xml version="1.0" encoding="UTF-8" standalone="no"?>
<!DOCTYPE svg PUBLIC "-//W3C//DTD SVG 1.1//EN" "http://www.w3.org/Graphics/SVG/1.1/DTD/svg11.dtd">
<svg width="100%" height="100%" viewBox="0 0 79 17" version="1.1" xmlns="http://www.w3.org/2000/svg" xmlns:xlink="http://www.w3.org/1999/xlink" xml:space="preserve" xmlns:serif="http://www.serif.com/" style="fill-rule:evenodd;clip-rule:evenodd;stroke-linejoin:round;stroke-miterlimit:2;">
    <g id="layer1" transform="matrix(1,0,0,1,-45.6476,-51.6737)">
        <path id="text1" d="M70.882,56.803L67.359,67.85L64.098,67.85L69.148,54.208L71.209,54.208L70.882,56.803ZM73.805,67.85L70.273,56.803L69.907,54.208L71.997,54.208L77.065,67.85L73.805,67.85ZM73.655,62.772L73.655,65.133L66.543,65.133L66.543,62.772L73.655,62.772ZM83.437,65.03C83.437,64.842 83.377,64.677 83.259,64.533C83.146,64.39 82.94,64.258 82.64,64.14C82.347,64.021 81.931,63.902 81.394,63.784C80.888,63.678 80.417,63.54 79.979,63.371C79.542,63.197 79.161,62.987 78.836,62.744C78.511,62.494 78.259,62.2 78.077,61.863C77.896,61.519 77.806,61.129 77.806,60.692C77.806,60.267 77.896,59.864 78.077,59.483C78.265,59.102 78.533,58.765 78.883,58.471C79.239,58.178 79.67,57.946 80.176,57.778C80.688,57.609 81.269,57.525 81.919,57.525C82.812,57.525 83.584,57.665 84.233,57.946C84.883,58.221 85.382,58.609 85.732,59.108C86.082,59.602 86.257,60.167 86.257,60.804L83.334,60.804C83.334,60.542 83.284,60.314 83.184,60.12C83.084,59.927 82.931,59.777 82.725,59.67C82.519,59.558 82.247,59.502 81.909,59.502C81.647,59.502 81.416,59.549 81.216,59.642C81.023,59.73 80.869,59.852 80.757,60.008C80.651,60.164 80.598,60.345 80.598,60.551C80.598,60.695 80.629,60.826 80.691,60.945C80.76,61.057 80.863,61.163 81.001,61.263C81.144,61.357 81.329,61.441 81.553,61.516C81.785,61.591 82.066,61.663 82.397,61.732C83.103,61.863 83.746,62.047 84.327,62.285C84.914,62.522 85.382,62.85 85.732,63.268C86.088,63.687 86.266,64.24 86.266,64.927C86.266,65.377 86.163,65.789 85.957,66.164C85.757,66.538 85.467,66.866 85.086,67.147C84.705,67.428 84.249,67.647 83.718,67.803C83.187,67.959 82.587,68.037 81.919,68.037C80.963,68.037 80.154,67.866 79.492,67.522C78.83,67.179 78.33,66.748 77.993,66.229C77.662,65.704 77.496,65.167 77.496,64.618L80.242,64.618C80.254,64.955 80.339,65.23 80.495,65.442C80.657,65.654 80.866,65.811 81.122,65.911C81.379,66.004 81.666,66.051 81.984,66.051C82.303,66.051 82.568,66.007 82.781,65.92C82.993,65.833 83.156,65.714 83.268,65.564C83.381,65.408 83.437,65.23 83.437,65.03L83.437,65.03ZM90.97,57.712L90.97,67.85L88.037,67.85L88.037,57.712L90.97,57.712ZM87.859,55.089C87.859,54.664 88.009,54.317 88.309,54.049C88.609,53.774 89.002,53.637 89.489,53.637C89.977,53.637 90.37,53.774 90.67,54.049C90.976,54.317 91.129,54.664 91.129,55.089C91.129,55.507 90.976,55.854 90.67,56.129C90.37,56.397 89.977,56.532 89.489,56.532C89.002,56.532 88.609,56.397 88.309,56.129C88.009,55.854 87.859,55.507 87.859,55.089ZM98.971,65.583L98.971,53.458L101.913,53.458L101.913,67.85L99.271,67.85L98.971,65.583ZM92.656,62.903L92.656,62.706C92.656,61.938 92.741,61.238 92.909,60.607C93.084,59.97 93.337,59.424 93.668,58.968C94.006,58.506 94.421,58.15 94.914,57.9C95.408,57.65 95.973,57.525 96.61,57.525C97.197,57.525 97.71,57.656 98.147,57.918C98.584,58.174 98.956,58.537 99.262,59.005C99.574,59.467 99.827,60.014 100.021,60.645C100.214,61.27 100.361,61.947 100.461,62.678L100.461,63.015C100.367,63.715 100.221,64.368 100.021,64.974C99.827,65.58 99.574,66.114 99.262,66.576C98.956,67.032 98.581,67.391 98.138,67.653C97.7,67.909 97.185,68.037 96.592,68.037C95.954,68.037 95.389,67.909 94.896,67.653C94.408,67.397 93.999,67.038 93.668,66.576C93.337,66.114 93.084,65.57 92.909,64.946C92.741,64.321 92.656,63.64 92.656,62.903ZM95.58,62.706L95.58,62.903C95.58,63.303 95.608,63.674 95.664,64.018C95.726,64.362 95.826,64.664 95.964,64.927C96.101,65.189 96.282,65.395 96.507,65.545C96.732,65.689 97.007,65.761 97.332,65.761C97.769,65.761 98.128,65.661 98.409,65.461C98.69,65.255 98.903,64.971 99.046,64.608C99.19,64.246 99.265,63.824 99.271,63.343L99.271,62.36C99.271,61.96 99.231,61.601 99.149,61.282C99.068,60.963 98.946,60.695 98.784,60.476C98.628,60.258 98.431,60.092 98.194,59.98C97.956,59.861 97.675,59.802 97.35,59.802C97.032,59.802 96.76,59.877 96.535,60.027C96.31,60.17 96.126,60.373 95.983,60.636C95.845,60.898 95.742,61.207 95.673,61.563C95.611,61.913 95.58,62.294 95.58,62.706L95.58,62.706ZM109.812,65.405L109.812,57.712L112.754,57.712L112.754,67.85L109.999,67.85L109.812,65.405ZM110.121,63.334L110.927,63.315C110.927,63.996 110.846,64.624 110.683,65.199C110.527,65.773 110.29,66.273 109.971,66.698C109.659,67.122 109.269,67.453 108.8,67.691C108.338,67.922 107.798,68.037 107.179,68.037C106.679,68.037 106.22,67.969 105.802,67.831C105.39,67.688 105.033,67.466 104.734,67.166C104.434,66.86 104.203,66.47 104.04,65.995C103.878,65.514 103.797,64.939 103.797,64.271L103.797,57.712L106.72,57.712L106.72,64.29C106.72,64.552 106.751,64.777 106.814,64.964C106.882,65.145 106.973,65.295 107.085,65.414C107.204,65.533 107.348,65.62 107.516,65.676C107.691,65.733 107.882,65.761 108.088,65.761C108.606,65.761 109.012,65.654 109.306,65.442C109.606,65.223 109.815,64.933 109.934,64.571C110.059,64.202 110.121,63.79 110.121,63.334L110.121,63.334ZM114.234,62.884L114.234,62.687C114.234,61.944 114.341,61.26 114.553,60.636C114.765,60.005 115.078,59.458 115.49,58.996C115.902,58.534 116.408,58.174 117.008,57.918C117.607,57.656 118.295,57.525 119.069,57.525C119.856,57.525 120.549,57.656 121.149,57.918C121.755,58.174 122.264,58.534 122.676,58.996C123.089,59.458 123.401,60.005 123.613,60.636C123.826,61.26 123.932,61.944 123.932,62.687L123.932,62.884C123.932,63.621 123.826,64.305 123.613,64.936C123.401,65.561 123.089,66.107 122.676,66.576C122.264,67.038 121.758,67.397 121.158,67.653C120.559,67.909 119.869,68.037 119.088,68.037C118.313,68.037 117.623,67.909 117.017,67.653C116.411,67.397 115.902,67.038 115.49,66.576C115.078,66.107 114.765,65.561 114.553,64.936C114.341,64.305 114.234,63.621 114.234,62.884ZM117.167,62.687L117.167,62.884C117.167,63.284 117.198,63.659 117.261,64.009C117.329,64.358 117.439,64.664 117.589,64.927C117.739,65.189 117.935,65.395 118.179,65.545C118.429,65.689 118.732,65.761 119.088,65.761C119.444,65.761 119.744,65.689 119.987,65.545C120.231,65.395 120.428,65.189 120.578,64.927C120.727,64.664 120.834,64.358 120.896,64.009C120.965,63.659 120.999,63.284 120.999,62.884L120.999,62.687C120.999,62.294 120.965,61.925 120.896,61.582C120.834,61.232 120.727,60.923 120.578,60.654C120.428,60.386 120.228,60.176 119.978,60.027C119.734,59.877 119.431,59.802 119.069,59.802C118.719,59.802 118.423,59.877 118.179,60.027C117.935,60.176 117.739,60.386 117.589,60.654C117.439,60.923 117.329,61.232 117.261,61.582C117.198,61.925 117.167,62.294 117.167,62.687Z" style="fill:rgb(92,32,255);fill-rule:nonzero;"/>
        <path d="M61.237,68.674L45.648,68.674L45.648,53.084L61.237,53.084L61.237,68.674ZM58.849,55.472L48.036,55.472L48.036,66.286L58.849,66.286L58.849,55.472Z" style="fill:rgb(179,179,179);"/>
        <g transform="matrix(1,0,0,1,48.8527,75.2463)">
            <g id="text2">
                <text x="0px" y="0px" style="font-family:'Helvetica-Bold', 'Helvetica';font-weight:700;font-size:32.463px;fill:rgb(92,32,255);">*</text>
            </g>
        </g>
    </g>
</svg>
